X: 18228
T: Humours Of Kiltyclogher, The
R: jig
M: 6/8
K: Adorian
B|:{AB}AGE G/A/GE|c2E G/A/GE|DED D2E|G{EG}ED D2B|
{AB}AGE G/A/GE|c2E DEG|~A3 BAG|~A3 {B}A2B:|
|:c2B c2d|e.cA ABc|BAG GA/B/c|dBA GAB|
c2B c2d|e.cA ABc|BAG GAB|1 ~A3 {B}A2B:|2 ~A3 {B}A3||

